static/tokens/Bitcoin.svg

<svg width="34" height="35" viewBox="0 0 34 35" fill="none" xmlns="http://www.w3.org/2000/svg">
<path d="M33.4917 21.1151C31.2209 30.2233 21.9952 35.766 12.8859 33.4951C3.78084 31.2243 -1.76231 21.9987 0.509034 12.891C2.77879 3.78165 12.0039 -1.76204 21.1106 0.50878C30.2193 2.7796 35.762 12.0063 33.4912 21.1151H33.4917Z" fill="#F7931A"/>
<path d="M24.497 14.5799C24.8349 12.3176 23.1124 11.1015 20.7571 10.2902L21.5211 7.22556L19.6552 6.76066L18.9113 9.7445C18.4215 9.62229 17.9178 9.507 17.4173 9.39277L18.1664 6.38927L16.3021 5.92438L15.5375 8.98791C15.1316 8.89546 14.7331 8.80408 14.3463 8.70791L14.3484 8.69835L11.7758 8.05599L11.2796 10.0484C11.2796 10.0484 12.6637 10.3656 12.6344 10.3853C13.39 10.5739 13.527 11.0738 13.5037 11.4702L12.6334 14.9614C12.6854 14.9747 12.7529 14.9938 12.8273 15.0236L12.6307 14.9747L11.4103 19.8654C11.3178 20.0949 11.0835 20.4392 10.5554 20.3085C10.574 20.3356 9.19951 19.9701 9.19951 19.9701L8.27344 22.1059L10.7015 22.7111C11.1531 22.8243 11.5957 22.9428 12.0309 23.0543L11.2589 26.1545L13.1222 26.6194L13.8873 23.5527C14.3957 23.6908 14.8898 23.8184 15.3733 23.9384L14.6114 26.9908L16.4769 27.4557L17.2489 24.3619C20.4298 24.9639 22.8223 24.7211 23.8281 21.8445C24.6394 19.528 23.7882 18.1918 22.1146 17.3199C23.3334 17.0378 24.2515 16.236 24.4964 14.5799H24.497ZM20.2343 20.5566C19.6573 22.8732 15.7575 21.6214 14.4924 21.3069L15.5168 17.2004C16.7813 17.516 20.8357 18.1408 20.2348 20.5566H20.2343ZM20.8108 14.5465C20.2848 16.6536 17.0385 15.5831 15.9849 15.3206L16.9136 11.5961C17.9672 11.8586 21.3591 12.3484 20.8108 14.5465Z" fill="white"/>
</svg>

<svg width="34" height="34" version="1.1" viewBox="0 0 34 34" xmlns="http://www.w3.org/2000/svg">
 <g transform="translate(-1.3061e-6 -.0039787)">
  <path d="m33.492 21.115c-2.2708 9.1082-11.496 14.651-20.606 12.38-9.1051-2.2708-14.648-11.496-12.377-20.604 2.2698-9.1094 11.495-14.653 20.602-12.382 9.1087 2.2708 14.651 11.498 12.381 20.606z" fill="#f7931a"/>
  <path d="m24.497 14.58c0.3379-2.2623-1.3846-3.4784-3.7399-4.2897l0.764-3.0646-1.8659-0.4649-0.7439 2.9838c-0.4898-0.12221-0.9935-0.2375-1.494-0.35173l0.7491-3.0035-1.8643-0.46489-0.7646 3.0635c-0.4059-0.09245-0.8044-0.18383-1.1912-0.28l0.0021-0.00956-2.5726-0.64236-0.4962 1.9924s1.3841 0.3172 1.3548 0.3369c0.7556 0.1886 0.8926 0.6885 0.8693 1.0849l-0.8703 3.4912c0.052 0.0133 0.1195 0.0324 0.1939 0.0622l-0.1966-0.0489-1.2204 4.8907c-0.0925 0.2295-0.3268 0.5738-0.8549 0.4431 0.0186 0.0271-1.3559-0.3384-1.3559-0.3384l-0.92607 2.1358 2.4281 0.6052c0.4516 0.1132 0.8942 0.2317 1.3294 0.3432l-0.772 3.1002 1.8633 0.4649 0.7651-3.0667c0.5084 0.1381 1.0025 0.2657 1.486 0.3857l-0.7619 3.0524 1.8655 0.4649 0.772-3.0938c3.1809 0.602 5.5734 0.3592 6.5792-2.5174 0.8113-2.3165-0.0399-3.6527-1.7135-4.5246 1.2188-0.2821 2.1369-1.0839 2.3818-2.74zm-4.2627 5.9767c-0.577 2.3166-4.4768 1.0648-5.7419 0.7503l1.0244-4.1065c1.2645 0.3156 5.3189 0.9404 4.718 3.3562zm0.5765-6.0101c-0.526 2.1071-3.7723 1.0366-4.8259 0.7741l0.9287-3.7245c1.0536 0.2625 4.4455 0.7523 3.8972 2.9504z" fill="#fff"/>
 </g>
</svg>
